brandFactory_export/2.Regular/Proyectos _2Regular.svg

<?xml version="1.0" encoding="UTF-8"?>
<svg width="24px" height="24px" viewBox="0 0 24 24" version="1.1" xmlns="http://www.w3.org/2000/svg" xmlns:xlink="http://www.w3.org/1999/xlink">
    <title>2.Regular/Proyectos _2Regular</title>
    <g id="Symbols" stroke="none" stroke-width="1" fill="none" fill-rule="evenodd">
        <g id="2.Regular/Proyectos-_2Regular" fill="#5CB615" fill-rule="nonzero">
            <path d="M9.16134454,22.107563 L9.16134454,5.47226891 L9.19495798,5.46218487 L15.4436975,5.46218487 L15.4436975,7.48571429 C15.4436975,8.50756303 15.7966387,9.38823529 16.4655462,10.0369748 C17.1277311,10.6789916 18.0218487,11.0184874 19.0571429,11.0184874 L21.1647059,11.0184874 L21.1344538,22.1109244 L9.16134454,22.107563 L9.16134454,22.107563 Z M2.5092437,17.4823529 L2.51260504,1.50588235 L13.994958,1.48571429 L13.994958,3.95630252 L9.19495798,3.95630252 C8.37815126,3.95630252 7.65882353,4.66554622 7.65882353,5.47226891 L7.65882353,17.4655462 L2.5092437,17.4823529 Z M16.9428571,6.1210084 L20.4319328,9.51260504 L19.0537815,9.51260504 C18.4151261,9.51260504 17.8806723,9.3210084 17.5042017,8.95462185 C17.1344538,8.59495798 16.9394958,8.08739496 16.9394958,7.48571429 L16.9394958,6.1210084 L16.9428571,6.1210084 Z M22.6033613,9.71428571 C22.5529412,9.55294118 22.4789916,9.40168067 22.3579832,9.28403361 L17.1680672,4.24201681 C16.9764706,4.05714286 16.7243697,3.95630252 16.4621849,3.95630252 L15.497479,3.95630252 L15.497479,1.48571429 C15.497479,0.678991597 14.8084034,0 13.9915966,0 L2.51260504,0 C1.69579832,0 1.00672269,0.682352941 1.00672269,1.48571429 L1.00672269,17.4823529 C1.00672269,18.2756303 1.7092437,18.9714286 2.51260504,18.9714286 L7.65882353,18.9714286 L7.65882353,22.107563 C7.65882353,22.9277311 8.36134454,23.6235294 9.19495798,23.6235294 L21.1277311,23.6235294 C21.9613445,23.6235294 22.6605042,22.9277311 22.6605042,22.107563 L22.6605042,10.010084 C22.6638655,9.90588235 22.6436975,9.80504202 22.6033613,9.71428571 Z" id="Proyectos-_2Regular"></path>
        </g>
    </g>
</svg>

<svg width="24" height="24" viewBox="0 0 24 24" xmlns="http://www.w3.org/2000/svg"><path d="M9.161 22.108V5.472l.034-.01h6.249v2.024c0 1.022.353 1.902 1.022 2.551.662.642 1.556.981 2.591.981h2.108l-.03 11.093-11.974-.003zM2.51 17.482l.004-15.976 11.482-.02v2.47h-4.8c-.817 0-1.536.71-1.536 1.516v11.994l-5.15.016zM16.943 6.121l3.489 3.392h-1.378c-.639 0-1.173-.192-1.55-.558-.37-.36-.565-.868-.565-1.47V6.122h.004zm5.66 3.593a1.001 1.001 0 00-.245-.43l-5.19-5.042a1.014 1.014 0 00-.706-.286h-.965v-2.47C15.497.679 14.808 0 13.992 0H2.512c-.816 0-1.505.682-1.505 1.486v15.996c0 .794.702 1.49 1.506 1.49h5.146v3.136c0 .82.702 1.516 1.536 1.516h11.933c.833 0 1.533-.696 1.533-1.516V10.01a.674.674 0 00-.058-.296z" fill="#5CB615" fill-rule="nonzero"/></svg>
